X: 151113
T: POLLY HOPKINS WALTZ
R: Waltz
%R: waltz
B: James Kerr "Merry Melodies" v.1 p.51 s.1 #13
Z: 2016 John Chambers <jc:trillian.mit.edu>
M: 3/4
L: 1/8
K: D
z2 |\
D>D F>F A>A | f2 d2 (3(dcd) | e2 g2 (3(cBc) | d2 f2 z2 |\
D>D F>F A>A | f2 d2 (3(dcd) | e2 g2 (3(cBc) | d4 :|
|: (3(dcd) |\
e2 g2 (3(cBc) | d2 f2 (3(dcd) | e2 g2 (3(cBc) | d2 f2 z2 |\
D>D F>F A>A | f2 d2 (3(dcd) | e2 g2 (3(cBc) | d4 :|

%%sep 1 1 500
%%sep 1 1 500

